images/quality/tecnology-icon.svg

<svg width="58" height="56" viewBox="0 0 58 56" fill="none" xmlns="http://www.w3.org/2000/svg">
<path d="M10.5515 17.3902C13.4915 17.3902 15.8748 15.0069 15.8748 12.0669C15.8748 9.12696 13.4915 6.74365 10.5515 6.74365C7.61157 6.74365 5.22827 9.12696 5.22827 12.0669C5.22827 15.0069 7.61157 17.3902 10.5515 17.3902Z" fill="url(#paint0_linear)"/>
<path fill-rule="evenodd" clip-rule="evenodd" d="M45.7224 0.628599L44.6297 0L43.8224 0.96823L40.5785 4.85875C39.977 4.19064 39.1053 3.77072 38.135 3.77072H33.0066C31.5122 3.77072 30.2515 4.76689 29.8521 6.13174H19.2768C17.3776 3.34508 14.1782 1.51537 10.5515 1.51537C4.72408 1.51537 0 6.23944 0 12.0669C0 15.0759 1.25951 17.7907 3.28009 19.7129L17.0086 43.5535H9.46517C6.83371 43.5535 4.70253 45.6847 4.70253 48.3161V53.3653C4.70253 54.7089 5.7902 55.7965 7.13377 55.7965H43.4984C44.8419 55.7965 45.9296 54.7089 45.9296 53.3653V48.3161C45.9296 45.6847 43.7984 43.5535 41.167 43.5535H34.3395L19.8279 18.3486H29.886C30.3193 19.6572 31.5523 20.6006 33.0066 20.6006H38.135C39.0637 20.6006 39.9021 20.2159 40.4996 19.5972L43.2551 23.0652L44.0222 24.0307L45.1178 23.4649L57.006 17.326C57.742 16.9459 58.0306 16.041 57.6505 15.305C57.2704 14.5689 56.3656 14.2803 55.6295 14.6604L44.8369 20.2336L41.4215 15.9349V8.53227L45.3192 3.85763L55.5698 9.75432C56.2879 10.1674 57.2049 9.92015 57.6179 9.20206C58.031 8.48397 57.7838 7.56697 57.0657 7.15388L45.7224 0.628599ZM20.5827 15.3486H29.7201V9.13174H20.6894C20.9587 10.0635 21.103 11.0484 21.103 12.0669C21.103 13.2126 20.9204 14.3157 20.5827 15.3486ZM32.7201 7.05725C32.7201 6.8983 32.8476 6.77072 33.0066 6.77072H38.135C38.294 6.77072 38.4215 6.89829 38.4215 7.05725V17.3141C38.4215 17.473 38.294 17.6006 38.135 17.6006H33.0066C32.8476 17.6006 32.7201 17.473 32.7201 17.3141V7.05725ZM10.5515 4.51537C6.38093 4.51537 3 7.8963 3 12.0669C3 16.2375 6.38093 19.6184 10.5515 19.6184C14.7221 19.6184 18.103 16.2375 18.103 12.0669C18.103 7.8963 14.7221 4.51537 10.5515 4.51537ZM30.8778 43.5535H20.4704L8.27303 22.3718C9.00681 22.5333 9.76922 22.6184 10.5515 22.6184C13.1561 22.6184 15.5402 21.6747 17.3807 20.1106L30.8778 43.5535ZM9.46517 46.5535C8.49056 46.5535 7.70253 47.3415 7.70253 48.3161V52.7965H42.9296V48.3161C42.9296 47.3415 42.1416 46.5535 41.167 46.5535H9.46517Z" fill="url(#paint1_linear)"/>
<defs>
<linearGradient id="paint0_linear" x1="10.5515" y1="6.74365" x2="10.5515" y2="17.3902" gradientUnits="userSpaceOnUse">
<stop stop-color="#AD844C"/>
<stop offset="0.244792" stop-color="#BDA180"/>
<stop offset="1" stop-color="#AD844C"/>
</linearGradient>
<linearGradient id="paint1_linear" x1="28.909" y1="0" x2="28.909" y2="55.7965" gradientUnits="userSpaceOnUse">
<stop stop-color="#AD844C"/>
<stop offset="0.244792" stop-color="#BDA180"/>
<stop offset="1" stop-color="#AD844C"/>
</linearGradient>
</defs>
</svg>

<svg width="58" height="56" fill="none" xmlns="http://www.w3.org/2000/svg"><path d="M10.552 17.39a5.323 5.323 0 100-10.646 5.323 5.323 0 000 10.646z" fill="url(#paint0_linear)"/><path fill-rule="evenodd" clip-rule="evenodd" d="M45.722.629L44.63 0l-.808.968-3.244 3.89a3.278 3.278 0 00-2.443-1.087h-5.128a3.287 3.287 0 00-3.155 2.36H19.277a10.54 10.54 0 00-8.726-4.616C4.725 1.515 0 6.24 0 12.067c0 3.009 1.26 5.724 3.28 7.646l13.729 23.84H9.465a4.761 4.761 0 00-4.762 4.763v5.05a2.43 2.43 0 002.43 2.43h36.365a2.43 2.43 0 002.432-2.43v-5.05a4.761 4.761 0 00-4.763-4.763h-6.828L19.829 18.35h10.058a3.287 3.287 0 003.12 2.252h5.129c.929 0 1.767-.385 2.365-1.004l2.755 3.468.767.966 1.096-.566 11.888-6.139a1.5 1.5 0 00-1.377-2.666l-10.792 5.574-3.416-4.3V8.533l3.898-4.674 10.25 5.896a1.5 1.5 0 101.497-2.6L45.722.629zm-25.14 14.72h9.138V9.132h-9.03c.269.931.413 1.916.413 2.935 0 1.146-.183 2.249-.52 3.282zM32.72 7.057c0-.159.128-.286.287-.286h5.128c.159 0 .287.127.287.286v10.257a.286.286 0 01-.287.287h-5.128a.286.286 0 01-.287-.287V7.057zM10.552 4.515a7.552 7.552 0 100 15.103 7.552 7.552 0 000-15.103zm20.326 39.038H20.47L8.273 22.372a10.59 10.59 0 002.279.246 10.51 10.51 0 006.829-2.507l13.497 23.442zm-21.413 3c-.974 0-1.762.789-1.762 1.763v4.48H42.93v-4.48c0-.974-.788-1.763-1.763-1.763H9.465z" fill="url(#paint1_linear)"/><defs><linearGradient id="paint0_linear" x1="10.552" y1="6.744" x2="10.552" y2="17.39" gradientUnits="userSpaceOnUse"><stop stop-color="#AD844C"/><stop offset=".245" stop-color="#BDA180"/><stop offset="1" stop-color="#AD844C"/></linearGradient><linearGradient id="paint1_linear" x1="28.909" y1="0" x2="28.909" y2="55.797" gradientUnits="userSpaceOnUse"><stop stop-color="#AD844C"/><stop offset=".245" stop-color="#BDA180"/><stop offset="1" stop-color="#AD844C"/></linearGradient></defs></svg>
